X:2868
T:Irish Washerwoman. WM023
O:england
M:6/8
L:1/8
Q:110
S:Wm.Mittell,1799
R:Jig
A:Kent
N:Hands across and back again, load(?) down the middle, up again,cast
N:off, hands up quite round, allemande with your partner
K:G
d/c/|BGG DGG|BGB dcB|cAA DAA|cAc edc|
BGG DGG|BGB dcB|d/c/Bc Adc|BGG G2:|
|:g/a/|bgg dgg|bgb bag|afd Adg|fdf agf|
egg dgg|cgg Bgg|d/c/Bc Adc|BGGG2:|]


